assets/1. 1-F/Fast down button/Color/Fast.Down.Button-color.svg

<svg width="100%" height="100%" viewBox="0 0 32 32" fill="none" xmlns="http://www.w3.org/2000/svg">
<g filter="url(#filter0_ii_18590_1503)">
<rect x="2.50034" y="2.4375" width="27.875" height="27.875" rx="3.6" fill="url(#paint0_linear_18590_1503)"/>
<rect x="2.50034" y="2.4375" width="27.875" height="27.875" rx="3.6" fill="url(#paint1_radial_18590_1503)"/>
</g>
<g filter="url(#filter1_f_18590_1503)">
<path d="M28.6878 4.9375V27.8125" stroke="url(#paint2_linear_18590_1503)" stroke-width="1.5" stroke-linecap="round"/>
</g>
<g filter="url(#filter2_f_18590_1503)">
<path d="M5.9642 4.25H27.7455" stroke="url(#paint3_linear_18590_1503)" stroke-width="1.5" stroke-linecap="round"/>
</g>
<g filter="url(#filter3_f_18590_1503)">
<path d="M15.237 16.0961C15.3252 16.0961 15.3702 15.9903 15.3091 15.9268L9.40349 9.78948C8.79217 9.15417 9.2424 8.0961 10.1241 8.0961H22.7445C23.6262 8.0961 24.0764 9.15417 23.4651 9.78948L17.5595 15.9268C17.4984 15.9903 17.5434 16.0961 17.6315 16.0961H22.7445C23.6262 16.0961 24.0764 17.1542 23.4651 17.7895L17.1549 24.3473C16.7615 24.7561 16.1071 24.7561 15.7137 24.3473L9.40349 17.7895C8.79217 17.1542 9.2424 16.0961 10.1241 16.0961H15.237Z" fill="#579FFF"/>
</g>
<g filter="url(#filter4_ii_18590_1503)">
<path d="M15.237 16.0961C15.3252 16.0961 15.3702 15.9903 15.3091 15.9268L9.40349 9.78948C8.79217 9.15417 9.2424 8.0961 10.1241 8.0961H22.7445C23.6262 8.0961 24.0764 9.15417 23.4651 9.78948L17.5595 15.9268C17.4984 15.9903 17.5434 16.0961 17.6315 16.0961H22.7445C23.6262 16.0961 24.0764 17.1542 23.4651 17.7895L17.1549 24.3473C16.7615 24.7561 16.1071 24.7561 15.7137 24.3473L9.40349 17.7895C8.79217 17.1542 9.2424 16.0961 10.1241 16.0961H15.237Z" fill="#FCF2FF"/>
</g>
<defs>
<filter id="filter0_ii_18590_1503" x="2.50034" y="1.4375" width="28.875" height="28.875" filterUnits="userSpaceOnUse" color-interpolation-filters="sRGB">
<feFlood flood-opacity="0" result="BackgroundImageFix"/>
<feBlend mode="normal" in="SourceGraphic" in2="BackgroundImageFix" result="shape"/>
<feColorMatrix in="SourceAlpha" type="matrix" values="0 0 0 0 0 0 0 0 0 0 0 0 0 0 0 0 0 0 127 0" result="hardAlpha"/>
<feOffset dx="1" dy="-1"/>
<feGaussianBlur stdDeviation="1.5"/>
<feComposite in2="hardAlpha" operator="arithmetic" k2="-1" k3="1"/>
<feColorMatrix type="matrix" values="0 0 0 0 0.188235 0 0 0 0 0.470588 0 0 0 0 0.843137 0 0 0 1 0"/>
<feBlend mode="normal" in2="shape" result="effect1_innerShadow_18590_1503"/>
<feColorMatrix in="SourceAlpha" type="matrix" values="0 0 0 0 0 0 0 0 0 0 0 0 0 0 0 0 0 0 127 0" result="hardAlpha"/>
<feOffset dy="-1"/>
<feGaussianBlur stdDeviation="1.5"/>
<feComposite in2="hardAlpha" operator="arithmetic" k2="-1" k3="1"/>
<feColorMatrix type="matrix" values="0 0 0 0 0.27451 0 0 0 0 0.34902 0 0 0 0 0.8 0 0 0 1 0"/>
<feBlend mode="normal" in2="effect1_innerShadow_18590_1503" result="effect2_innerShadow_18590_1503"/>
</filter>
<filter id="filter1_f_18590_1503" x="25.9378" y="2.1875" width="5.5" height="28.375" filterUnits="userSpaceOnUse" color-interpolation-filters="sRGB">
<feFlood flood-opacity="0" result="BackgroundImageFix"/>
<feBlend mode="normal" in="SourceGraphic" in2="BackgroundImageFix" result="shape"/>
<feGaussianBlur stdDeviation="1" result="effect1_foregroundBlur_18590_1503"/>
</filter>
<filter id="filter2_f_18590_1503" x="3.2142" y="1.5" width="27.2812" height="5.5" filterUnits="userSpaceOnUse" color-interpolation-filters="sRGB">
<feFlood flood-opacity="0" result="BackgroundImageFix"/>
<feBlend mode="normal" in="SourceGraphic" in2="BackgroundImageFix" result="shape"/>
<feGaussianBlur stdDeviation="1" result="effect1_foregroundBlur_18590_1503"/>
</filter>
<filter id="filter3_f_18590_1503" x="8.12207" y="7.0961" width="16.6245" height="18.5578" filterUnits="userSpaceOnUse" color-interpolation-filters="sRGB">
<feFlood flood-opacity="0" result="BackgroundImageFix"/>
<feBlend mode="normal" in="SourceGraphic" in2="BackgroundImageFix" result="shape"/>
<feGaussianBlur stdDeviation="0.5" result="effect1_foregroundBlur_18590_1503"/>
</filter>
<filter id="filter4_ii_18590_1503" x="8.12207" y="7.6961" width="16.0245" height="17.9578" filterUnits="userSpaceOnUse" color-interpolation-filters="sRGB">
<feFlood flood-opacity="0" result="BackgroundImageFix"/>
<feBlend mode="normal" in="SourceGraphic" in2="BackgroundImageFix" result="shape"/>
<feColorMatrix in="SourceAlpha" type="matrix" values="0 0 0 0 0 0 0 0 0 0 0 0 0 0 0 0 0 0 127 0" result="hardAlpha"/>
<feOffset dx="-1" dy="1"/>
<feGaussianBlur stdDeviation="1"/>
<feComposite in2="hardAlpha" operator="arithmetic" k2="-1" k3="1"/>
<feColorMatrix type="matrix" values="0 0 0 0 0.866667 0 0 0 0 0.819608 0 0 0 0 0.941176 0 0 0 1 0"/>
<feBlend mode="normal" in2="shape" result="effect1_innerShadow_18590_1503"/>
<feColorMatrix in="SourceAlpha" type="matrix" values="0 0 0 0 0 0 0 0 0 0 0 0 0 0 0 0 0 0 127 0" result="hardAlpha"/>
<feOffset dx="0.4" dy="-0.4"/>
<feGaussianBlur stdDeviation="0.5"/>
<feComposite in2="hardAlpha" operator="arithmetic" k2="-1" k3="1"/>
<feColorMatrix type="matrix" values="0 0 0 0 1 0 0 0 0 0.988235 0 0 0 0 1 0 0 0 1 0"/>
<feBlend mode="normal" in2="effect1_innerShadow_18590_1503" result="effect2_innerShadow_18590_1503"/>
</filter>
<linearGradient id="paint0_linear_18590_1503" x1="16.4378" y1="6.01201" x2="16.4378" y2="39.2647" gradientUnits="userSpaceOnUse">
<stop stop-color="#5CB7FF"/>
<stop offset="1" stop-color="#4878DD"/>
</linearGradient>
<radialGradient id="paint1_radial_18590_1503" cx="0" cy="0" r="1" gradientUnits="userSpaceOnUse" gradientTransform="translate(28.1566 4.53125) rotate(136.771) scale(2.14444 2.50466)">
<stop stop-color="#7BD7FF"/>
<stop offset="1" stop-color="#7BD7FF" stop-opacity="0"/>
</radialGradient>
<linearGradient id="paint2_linear_18590_1503" x1="29.1878" y1="4.9375" x2="29.1878" y2="27.8125" gradientUnits="userSpaceOnUse">
<stop stop-color="#7FD9FF"/>
<stop offset="1" stop-color="#639DF4"/>
</linearGradient>
<linearGradient id="paint3_linear_18590_1503" x1="28.9017" y1="4.50002" x2="3.37045" y2="4.50002" gradientUnits="userSpaceOnUse">
<stop stop-color="#7DD8FF"/>
<stop offset="1" stop-color="#5DB6FF"/>
</linearGradient>
</defs>
</svg>

<svg width="100%" height="100%" viewBox="0 0 32 32" xmlns="http://www.w3.org/2000/svg"><g filter="url(#a)"><rect width="27.875" height="27.875" x="2.5" y="2.438" fill="url(#b)" rx="3.6"/><rect width="27.875" height="27.875" x="2.5" y="2.438" fill="url(#c)" rx="3.6"/></g><g filter="url(#d)"><path stroke="url(#e)" stroke-linecap="round" stroke-width="1.5" d="M28.688 4.938v22.875"/></g><g filter="url(#f)"><path stroke="url(#g)" stroke-linecap="round" stroke-width="1.5" d="M5.964 4.25h21.782"/></g><g filter="url(#h)"><path fill="#579FFF" d="M15.237 16.096a.1.1 0 0 0 .072-.17L9.403 9.79c-.61-.635-.16-1.693.721-1.693h12.62c.882 0 1.332 1.058.721 1.693l-5.905 6.138a.1.1 0 0 0 .072.17h5.112c.882 0 1.332 1.057.721 1.692l-6.31 6.558a1 1 0 0 1-1.441 0l-6.31-6.558c-.612-.635-.162-1.693.72-1.693z"/></g><g filter="url(#i)"><path fill="#FCF2FF" d="M15.237 16.096a.1.1 0 0 0 .072-.17L9.403 9.79c-.61-.635-.16-1.693.721-1.693h12.62c.882 0 1.332 1.058.721 1.693l-5.905 6.138a.1.1 0 0 0 .072.17h5.112c.882 0 1.332 1.057.721 1.692l-6.31 6.558a1 1 0 0 1-1.441 0l-6.31-6.558c-.612-.635-.162-1.693.72-1.693z"/></g><defs><filter id="a" width="28.875" height="28.875" x="2.5" y="1.438" color-interpolation-filters="sRGB" filterUnits="userSpaceOnUse"><feFlood flood-opacity="0" result="BackgroundImageFix"/><feBlend in="SourceGraphic" in2="BackgroundImageFix" result="shape"/><feColorMatrix in="SourceAlpha" result="hardAlpha" values="0 0 0 0 0 0 0 0 0 0 0 0 0 0 0 0 0 0 127 0"/><feOffset dx="1" dy="-1"/><feGaussianBlur stdDeviation="1.5"/><feComposite in2="hardAlpha" k2="-1" k3="1" operator="arithmetic"/><feColorMatrix values="0 0 0 0 0.188235 0 0 0 0 0.470588 0 0 0 0 0.843137 0 0 0 1 0"/><feBlend in2="shape" result="effect1_innerShadow_18590_1503"/><feColorMatrix in="SourceAlpha" result="hardAlpha" values="0 0 0 0 0 0 0 0 0 0 0 0 0 0 0 0 0 0 127 0"/><feOffset dy="-1"/><feGaussianBlur stdDeviation="1.5"/><feComposite in2="hardAlpha" k2="-1" k3="1" operator="arithmetic"/><feColorMatrix values="0 0 0 0 0.27451 0 0 0 0 0.34902 0 0 0 0 0.8 0 0 0 1 0"/><feBlend in2="effect1_innerShadow_18590_1503" result="effect2_innerShadow_18590_1503"/></filter><filter id="d" width="5.5" height="28.375" x="25.938" y="2.188" color-interpolation-filters="sRGB" filterUnits="userSpaceOnUse"><feFlood flood-opacity="0" result="BackgroundImageFix"/><feBlend in="SourceGraphic" in2="BackgroundImageFix" result="shape"/><feGaussianBlur result="effect1_foregroundBlur_18590_1503" stdDeviation="1"/></filter><filter id="f" width="27.281" height="5.5" x="3.214" y="1.5" color-interpolation-filters="sRGB" filterUnits="userSpaceOnUse"><feFlood flood-opacity="0" result="BackgroundImageFix"/><feBlend in="SourceGraphic" in2="BackgroundImageFix" result="shape"/><feGaussianBlur result="effect1_foregroundBlur_18590_1503" stdDeviation="1"/></filter><filter id="h" width="16.625" height="18.558" x="8.122" y="7.096" color-interpolation-filters="sRGB" filterUnits="userSpaceOnUse"><feFlood flood-opacity="0" result="BackgroundImageFix"/><feBlend in="SourceGraphic" in2="BackgroundImageFix" result="shape"/><feGaussianBlur result="effect1_foregroundBlur_18590_1503" stdDeviation=".5"/></filter><filter id="i" width="16.024" height="17.958" x="8.122" y="7.696" color-interpolation-filters="sRGB" filterUnits="userSpaceOnUse"><feFlood flood-opacity="0" result="BackgroundImageFix"/><feBlend in="SourceGraphic" in2="BackgroundImageFix" result="shape"/><feColorMatrix in="SourceAlpha" result="hardAlpha" values="0 0 0 0 0 0 0 0 0 0 0 0 0 0 0 0 0 0 127 0"/><feOffset dx="-1" dy="1"/><feGaussianBlur stdDeviation="1"/><feComposite in2="hardAlpha" k2="-1" k3="1" operator="arithmetic"/><feColorMatrix values="0 0 0 0 0.866667 0 0 0 0 0.819608 0 0 0 0 0.941176 0 0 0 1 0"/><feBlend in2="shape" result="effect1_innerShadow_18590_1503"/><feColorMatrix in="SourceAlpha" result="hardAlpha" values="0 0 0 0 0 0 0 0 0 0 0 0 0 0 0 0 0 0 127 0"/><feOffset dx=".4" dy="-.4"/><feGaussianBlur stdDeviation=".5"/><feComposite in2="hardAlpha" k2="-1" k3="1" operator="arithmetic"/><feColorMatrix values="0 0 0 0 1 0 0 0 0 0.988235 0 0 0 0 1 0 0 0 1 0"/><feBlend in2="effect1_innerShadow_18590_1503" result="effect2_innerShadow_18590_1503"/></filter><linearGradient id="b" x1="16.438" x2="16.438" y1="6.012" y2="39.265" gradientUnits="userSpaceOnUse"><stop stop-color="#5CB7FF"/><stop offset="1" stop-color="#4878DD"/></linearGradient><linearGradient id="e" x1="29.188" x2="29.188" y1="4.938" y2="27.813" gradientUnits="userSpaceOnUse"><stop stop-color="#7FD9FF"/><stop offset="1" stop-color="#639DF4"/></linearGradient><linearGradient id="g" x1="28.902" x2="3.37" y1="4.5" y2="4.5" gradientUnits="userSpaceOnUse"><stop stop-color="#7DD8FF"/><stop offset="1" stop-color="#5DB6FF"/></linearGradient><radialGradient id="c" cx="0" cy="0" r="1" gradientTransform="matrix(-1.56249 1.46876 -1.71548 -1.82495 28.157 4.531)" gradientUnits="userSpaceOnUse"><stop stop-color="#7BD7FF"/><stop offset="1" stop-color="#7BD7FF" stop-opacity="0"/></radialGradient></defs></svg>
